icons/lines/video-time.svg

<svg xmlns="http://www.w3.org/2000/svg" width="24" height="24" viewBox="0 0 24 24" fill="none" stroke="currentColor" stroke-width="2" stroke-linecap="round" stroke-linejoin="round">
  <path d="M15.48 2.11v4.41" />
  <path d="M18.78 17.09v1.69l-1.4.84" />
  <path d="M2.52 7.11h18.96" />
  <path d="M22 15a7 7 0 0 1-.02.65A4.46 4.46 0 0 0 14 18.5a4.46 4.46 0 0 0 1.65 3.48A7 7 0 0 1 15 22H9c-5 0-7-2-7-7V9c0-5 2-7 7-7h6c5 0 7 2 7 7z" />
  <path d="M8.52 2.11v4.86" />
  <circle cx="18.49" cy="18.49" r="4.474" />
</svg>

<svg xmlns="http://www.w3.org/2000/svg" width="24" height="24" viewBox="0 0 24 24" fill="none" stroke="currentColor" stroke-width="2" stroke-linecap="round" stroke-linejoin="round" >
  <path d="M22 9V15C22 15.22 22 15.44 21.98 15.65C21.16 14.64 19.91 14 18.5 14C17.44 14 16.46 14.37 15.69 14.99C14.65 15.81 14 17.08 14 18.5C14 19.91 14.64 21.16 15.65 21.98C15.44 22 15.22 22 15 22H9C4 22 2 20 2 15V9C2 4 4 2 9 2H15C20 2 22 4 22 9Z"/>
  <path d="M2.52002 7.10999H21.48"/>
  <path d="M8.52002 2.10999V6.96997"/>
  <path d="M15.48 2.10999V6.52002"/>
  <path d="M23 18.5C23 19.85 22.4 21.05 21.47 21.88C20.67 22.57 19.64 23 18.5 23C17.42 23 16.42 22.62 15.65 21.98C14.64 21.16 14 19.91 14 18.5C14 17.08 14.65 15.81 15.69 14.99C16.46 14.37 17.44 14 18.5 14C19.91 14 21.16 14.64 21.98 15.65C22.62 16.42 23 17.42 23 18.5Z" stroke-miterlimit="10"/>
  <path d="M18.7799 17.09V18.78L17.3799 19.62" stroke-miterlimit="10"/>
  </svg>
